src/images/SVG/edit-product.svg

<svg xmlns="http://www.w3.org/2000/svg" width="24" height="24" viewBox="0 0 24 24"><path d="M8.424 12.282l4.402 4.399-5.826 1.319 1.424-5.718zm15.576-6.748l-9.689 9.804-4.536-4.536 9.689-9.802 4.536 4.534zm-6 8.916v6.55h-16v-12h6.743l1.978-2h-10.721v16h20v-10.573l-2 2.023z"/></svg>

<svg xmlns="http://www.w3.org/2000/svg" width="24" height="24"><path d="M8.424 12.282l4.402 4.399L7 18l1.424-5.718zM24 5.534l-9.689 9.804-4.536-4.536L19.464 1 24 5.534zm-6 8.916V21H2V9h6.743l1.978-2H0v16h20V12.427l-2 2.023z"/></svg>
